X: 33566
T: Rakes Of Drumlish, The
R: reel
M: 4/4
K: Gmajor
|:A|B2 AB GEDB,|DB,DG EA A2|B2 AB GEDA|cAdc BGGA|
B2 AB GEDB,|DB,DG EA A2|BGAF GFED|cAdc BG G:|
|:A|Bd d2 ed d2|BddB cAAc|Bd d2 edge|dcAc BGGA|
B2 gB bBgB|BddB cAAc|Bdgb afge|dcAc BG G:|

